!!!!SEGMENT: pl-wn--mus-ii-17-883-cim_katski-apolinary--wielkopolanin-mazur-op-8.krn
!!!cenid: 18xx:3627
!!!COM: Kątski, Apolinary
!!!COM-rismID: pe30020040
!!!CDT: 1825-1879
!!!CNT: Polish
!!!OTL: Wielkopolanin mazur op. 8
!!!PDT:
!!!AGN:
!!!SMS-siglum: PL-Wn
!!!SMS-shelfmark: Mus.II.17.883 Cim
!!!SMS-shelfwork: W
!!!SMS-variant:
!!!SMS-altvar:
!!!NIFC-rismSourceID:
!!!NIFC-islandoraID:
!!!URL-pdf-islandora:
!!!URL-scan: https://polona.pl/item/wielkopolanin-souvenir-de-posen-mazur-op-8,MTA1NjQ3OQ/8 @EN{Scan on Polona} @PL{Skany w portalu Polona}
!!!ONB-nifc:
!!!AIN: 1 empty 1 piano
!!!key: G-
**kern	**dynam	**kern	**dynam
*part2	*part2	*part1	*part1
*staff2	*	*staff1	*
*	*	*	*
*	*	*	*
*Iempty	*	*Ipiano	*
*	*	*I"Piano	*
*I'P-no	*	*I'P-no	*
*clefF4	*	*clefG2	*
*k[f#]	*	*k[f#]	*
*G-:	*	*G-:	*
*M3/4	*	*M3/4	*
=1	=1	=1	=1
8.DD/L 8.D	.	8.d/L 8.dd	.
16DD/Jk 16D	.	16d/Jk 16dd	.
4DD/ 4D	.	4d/ 4dd	.
4DD^/ 4D	.	4d^/ 4dd	.
=2	=2	=2	=2
8.DD/L 8.D	.	8.d/L 8.dd	.
16DD/Jk 16D	.	16d/Jk 16dd	.
4DD/ 4D	.	4d/ 4dd	.
4DD^/ 4D	.	4d^/ 4dd	.
=3	=3	=3	=3
*8ba	*	*	*
!LO:TX:b:t=8va di Basso.	!	!	!
8.DDD/L 8.DD	.	8.dd\L 8.ddd	.
16DDD/Jk 16DD	.	16dd\Jk 16ddd	.
4DDD/ 4DD	.	4dd\ 4ddd	.
4DDD^/ 4DD	.	4dd^\ 4ddd	.
=4	=4	=4	=4
8.DDD/L 8.DD	.	8.dd\L 8.ddd	.
16DDD/Jk 16DD	.	16dd\Jk 16ddd	.
4DDD/ 4DD	.	4dd\ 4ddd	.
4DDD^/ 4DD	.	4dd^\ 4ddd	.
*X8ba	*	*	*
==5	==5	==5	==5
8GGG/ 8GG	.	8b'\ 8bb	???
!	!	!LO:TX:b:t=con impeto	!
8r	.	8r	.
4D\ 4G 4B	.	8a'\L 8aa	.
.	.	8g'\ 8gg	.
4E\ 4G 4c	.	8f#'\ 8ff#	.
.	.	8e'\J 8ee	.
=6	=6	=6	=6
4GGG/ 4GG	.	8d/L 8dd	.
.	.	16r	.
.	.	(16b/Jk	.
2E^\ 2G 2B	.	4ee^\	.
.	.	4dd\)	.
=7	=7	=7	=7
*^	*	*^	*
4GG/	4ryy	.	(8e/L 8cc	4ryy	p
.	.	.	16r	.	.
.	.	.	16a/Jk	.	.
!	!	!	!	!	!LO:DY:a
2A/	(4Fn\	.	4.dd/	2d\	>
.	4F#X\)	.	.	.	.
.	.	.	8cc/)	.	.
!LO:LB:g=orginal	!	!LO:LB:g=orginal	!	!	!
=8	=8	=8	=8	=8	=8
4GG/	4ryy	.	8.d/L 8.b	4ryy	]
.	.	.	(16cc/Jk	.	.
(4A#X/	2G^\	.	4cc#X^/	4e\	.
4B/)	.	.	4dd/)	4d\	.
*v	*v	*	*	*	*
*	*	*v	*v	*
=9	=9	=9	=9
8GGG/ 8GG	.	8b'\ 8bb	.
8r	.	8r	.
4D\ 4G 4B	.	8a'\L 8aa	.
.	.	8g'\ 8gg	.
4E\ 4G 4c	.	8f#'\ 8ff#	.
.	.	8e'\J 8ee	.
=10	=10	=10	=10
4GGG/ 4GG	.	(8d/L 8dd	.
.	.	16r	.
.	.	16b/Jk	.
2D^\ 2G 2B	.	4ee^\	.
.	.	4dd\)	.
=11	=11	=11	=11
*^	*	*^	*
4GG/	4ryy	.	8e/L 8cc	4ryy	p
.	.	.	16r	.	.
.	.	.	(16a/Jk	.	.
2A/	(4Fn\	>	4.dd/	2d\	.
.	4F#X\)	.	.	.	.
.	.	.	8cc/)	.	.
=12	=12	=12	=12	=12	=12
4GG/	4ryy	]	8.d/L 8.b	4ryy	.
.	.	.	(16cc/Jk	.	.
(4A#X/	2G^\	.	4cc#X/	4e^\	.
4B/)	.	.	4dd/)	4d\	.
*v	*v	*	*	*	*
=13||	=13||	=13||	=13||	=13||
*	*	*	*^	*
!	!	!LO:TX:a:t=con espress&colon;	!	!	!
4FFF#/ 4FF#	.	8cc/L 8ff#	4ryy	8f#\L	pp
.	.	16rc	.	16r	.
.	.	16cc/Jk [16ff#	.	[16f#\Jk	.
2F#^\ 2A#X 2e	.	2ff#/]	4dd\	2f#^\]	.
.	.	.	4ee\	.	.
=14	=14	=14	=14	=14	=14
4FFF#/ 4FF#	.	8dd/L 8ff#	4ryy	8f#\L	.
.	.	16rc	.	16r	.
.	.	16dd/Jk [16ff#	.	[16f#\Jk	.
2F#\ 2B 2d	.	2ff#/]	4cc#X\	2f#^\]	.
.	.	.	4b\	.	.
!LO:LB:g=orginal	!	!LO:LB:g=orginal	!	!	!
=15	=15	=15	=15	=15	=15
*^	*	*	*	*	*
4FFF#/ 4FF#	4ryy	.	8a#X/L 8ff#	4ryy	8f#\L	.
.	.	.	16rc	.	16r	.
.	.	.	(16a#/Jk [16ff#	.	[16f#\Jk	.
2e/	(4c#X^\	.	2ff#/]	4b\	2f#^\]	.
.	4F#\)	.	.	4cc#X/)	.	.
=16	=16	=16	=16	=16	=16	=16
4FFF#/ 4FF#	4ryy	.	8b/L 8ff#	4ryy	8f#\L	.
.	.	.	16rc	.	16r	.
.	.	.	16b/Jk [16ff#	.	[16f#\Jk	.
2d/	(4B\	.	2ff#/]	(4cc#X\	2f#^\]	.
.	4F#\)	.	.	4dd/)	.	.
*v	*v	*	*	*	*	*
=17	=17	=17	=17	=17	=17
4FFF#/ 4FF#	.	8cc#X/L 8ff#	4ryy	8f#\L	.
.	.	16rc	.	16r	.
.	.	(16cc#/Jk [16ff#	.	[16f#\Jk	.
2F#\ 2A#X 2e	.	2ff#/]	4dd\	2f#^\]	.
.	.	.	4ee\)	.	.
=18	=18	=18	=18	=18	=18
4FFF#/ 4FF#	.	8dd/L 8ff#	4ryy	8f#\L	.
.	.	16rc	.	16r	.
.	.	(16dd/Jk [16ff#	.	[16f#\Jk	.
2F#\ 2B 2d	.	2ff#/]	4cc#X\	2f#^\]	.
.	.	.	4b\)	.	.
=19	=19	=19	=19	=19	=19
*^	*	*	*	*	*
4FFF#/ 4FF#	4ryy	.	8a#X/L 8ff#	4ryy	8f#\L	.
.	.	.	16rc	.	16r	.
.	.	.	(16a#/Jk [16ff#	.	[16f#\Jk	.
2e^/	(4c\	.	2ff#/]	4b\	2f#^\]	.
.	4F#\)	.	.	4cc#X/)	.	.
*v	*v	*	*	*	*	*
*	*	*	*v	*v	*
=20	=20	=20	=20	=20
4BBB/ 4BB	.	8f#\L	8dd/ 8ff#	f
.	.	8cc#X\J 8ccc#X	8ryy	.
2D\ 2F# 2A 2cn	.	8ee'\L 8eee	2ryy	.
.	.	16r	.	.
.	.	16dd^\K 16ddd	.	.
.	.	8cc#X^\ 8ccc#X	.	.
.	.	8cc#^\J 8ccc#	.	.
!LO:LB:g=orginal	!	!LO:LB:g=orginal	!	!
*	*	*v	*v	*
=21	=21	=21	=21
8GGG/ 8GG	.	8b'\ 8bb	???
!	!	!LO:TX:b:t=con impeto	!
8r	.	8r	.
4D\ 4G 4B	.	8a'\L 8aa	.
.	.	8g'\ 8gg	.
4E\ 4G 4c	.	8f#'\ 8ff#	.
.	.	8e'\J 8ee	.
=22	=22	=22	=22
4GGG/ 4GG	.	8d/L 8dd	.
.	.	16r	.
.	.	(16b/Jk	.
2D^\ 2G 2B	.	4ee^\	.
.	.	4dd\)	.
=23	=23	=23	=23
*^	*	*^	*
4GG/	4ryy	.	(8e/L 8cc	4ryy	p
.	.	.	16r	.	.
.	.	.	16a/Jk	.	.
2A^/	4Fn\	.	4.dd^/	2d\	.
.	4F#X\	.	.	.	.
.	.	.	8cc/)	.	.
=24	=24	=24	=24	=24	=24
4GG/	4ryy	.	8.d/L 8.b	4ryy	.
.	.	.	(16cc/Jk	.	.
(4A#X^/	2G\	>	4cc#X^/	4e\	.
4B/)	.	.	4dd/)	4d\	.
*v	*v	*	*	*	*
*	*	*v	*v	*
=25	=25	=25	=25
8GGG/ 8GG	]	8b'\ 8bb	ff
8r	.	8r	.
4D\ 4G 4B	.	8a'\L 8aa	.
.	.	8g'\ 8gg	.
4E\ 4G 4c	.	8f#'\ 8ff#	.
.	.	8e'\J 8ee	.
=26	=26	=26	=26
4GGG/ 4GG	.	(8d/L 8dd	.
.	.	16r	.
.	.	16b/Jk	.
2D^\ 2G 2B	.	4ee^\	.
.	.	4dd\)	.
=27	=27	=27	=27
*^	*	*^	*
4GG/	4ryy	.	8e/L 8cc	4ryy	p
.	.	.	16r	.	.
.	.	.	(16a/Jk	.	.
2A^/	(4Fn\	.	4.dd^/	2d\	.
.	4F#X\)	.	.	.	.
.	.	.	8cc#X/)	.	.
=28	=28	=28	=28	=28	=28
4GG/	4ryy	.	8.d/L 8.b	4ryy	.
.	.	.	(16cc/Jk	.	.
(4A#X/	2G^\	.	4cc#X^/	4e\	.
4B/)	.	.	4dd/)	4d\	.
!	!LO:PB:g=orginal	!	!LO:PB:g=orginal	!	!
*v	*v	*	*	*	*
*	*	*v	*v	*
=29||	=29||	=29||	=29||
!	!	!LO:TX:a:t=Con eleganza	!
4AAA/ 4AA	.	(8cc#X|\L	p
.	.	16r	.
.	.	16ee\Jk	.
2G^\ 2A 2c#X 2e	.	4bb\	.
.	.	4aa\)	.
=30	=30	=30	=30
4AAA/ 4AA	.	(8ff#|\L	.
.	.	16r	.
.	.	16aa\Jk	.
2F#^\ 2A 2d	.	4eee\	.
.	.	4ddd\)	.
=31	=31	=31	=31
*^	*	*	*
4ryy	4AAA/ 4AA	.	(8cc#X|\L	.
.	.	.	16r	.
.	.	.	16ee\Jk	.
4e/	2G\ 2c#X	.	4b^\ 4bb	.
4A/	.	.	4a\) 4aa	.
=32	=32	=32	=32	=32
4AAA/ 4AA	4ryy	.	(8dd|\L	.
.	.	.	16r	.
.	.	.	16ff#\Jk	.
.	.	.	16qqff#/LL	.
.	.	.	16qqaa/JJ	.
4d^/	2F#\	.	4gg\	.
4A/	.	.	4ff#\)	.
*v	*v	*	*	*
=33	=33	=33	=33
4AAA/ 4AA	.	(8cc#X|\L	.
.	.	16r	.
.	.	16ee\Jk	.
2G\ 2A 2c#X 2e	.	4bb^\	.
.	.	4aa\)	.
=34	=34	=34	=34
*^	*	*	*
4AA/	4ryy	.	(8ff#|\L	.
.	.	.	16r	.
.	.	.	16aa\Jk	.
2d/	2F#\ 2A	.	4eee^\	.
.	.	.	4ddd\)	<
=35	=35	=35	=35	=35
4AAA/ 4AA	4ryy	.	(8cc#X|\L	.
.	.	.	16r	.
.	.	.	16ee\Jk	.
4e/	2G\ 2c#X	.	4b^\ 4bb	.
4A/	.	.	4a\) 4aa	[[
!LO:LB:g=orginal	!	!LO:LB:g=orginal	!	!
=36	=36	=36	=36	=36
4AA/	2.DD\	.	(4.dd^\	ff
2D^/	.	.	.	.
.	.	.	8cc#X\L	.
.	.	.	(16qqb/LL	.
.	.	.	16qqcc#/JJ)	.
.	.	.	8b\	.
.	.	.	8a\J)	.
=37	=37	=37	=37	=37
4AA/	2.DD\	.	(4.dd^\	.
2D^/	.	.	.	.
.	.	.	8cc#X\L	.
.	.	.	(16qqb/LL	.
.	.	.	16qqcc#/JJ)	.
.	.	.	8b\	.
.	.	.	8a\J)	.
=38	=38	=38	=38	=38
4AA/	2.DD\	.	(4.dd^\	p >
2D^/	.	.	.	.
.	.	.	8cc#X\L	.
.	.	.	(16qqb/LL	.
.	.	.	16qqcc#/JJ)	.
.	.	.	8b\	.
.	.	.	8a\J)	.
=39	=39	=39	=39	=39
4AA/	2.DD\	.	(4.dd^\	.
2D^/	.	.	.	.
.	.	.	8cc#X\L	.
.	.	.	(16qqb/LL	.
.	.	.	16qqcc#/JJ)	.
.	.	.	8b\	.
.	.	.	8a\J)	]]
=40	=40	=40	=40	=40
*	*	*	*^	*
2D/ 2B	2.GG\	.	(4.gg/	2.g^\	pp >
.	.	.	8ff#/L	.	.
.	.	.	16qqee\LL	.	.
.	.	.	(16qqff#\JJ	.	.
4D/ 4B	.	.	8ee/)	.	.
.	.	.	8dd/J)	.	.
=41	=41	=41	=41	=41	=41
2D/ 2B	2.GG\	.	(4.gg/	2.g^\	] >
.	.	.	8ff#/L	.	.
.	.	.	16qqee\LL	.	.
.	.	.	(16qqff#\JJ	.	.
4D/ 4B	.	.	8ee/)	.	.
.	.	.	8dd/J)	.	.
!LO:LB:g=orginal	!	!LO:LB:g=orginal	!	!	!
=42	=42	=42	=42	=42	=42
2D/ 2A	2.GG\	>	(8.cc/L	2.f#^\	] >
.	.	.	16a/Jk	.	.
.	.	.	4dd/	.	.
4D/ 4A	.	.	4cc/)	.	.
=43	=43	=43	=43	=43	=43
2D/ 2G	2.GG\	] >	(12b/L	2.g^\	] >
.	.	.	12cc/	.	.
.	.	.	12cc#X/J	.	.
.	.	.	4ee/	.	.
4D/ 4G	.	.	4dd/)	.	.
=44	=44	=44	=44	=44	=44
2D/ 2B	2.GG\	] >	(4.gg/	2.g^\	] >
.	.	.	8ff#/L	.	.
.	.	.	16qqee\LL	.	.
.	.	.	(16qqff#\JJ	.	.
4D/ 4B	.	.	8ee/)	.	.
.	.	.	8dd/J)	.	.
=45	=45	=45	=45	=45	=45
2D/ 2B	2.GG\	] >	(4.gg/	2.g^\	] >
.	.	.	8ff#/L	.	.
.	.	.	16qqee\LL	.	.
.	.	.	(16qqff#\JJ	.	.
4D/ 4B	.	.	8ee/)	.	.
.	.	.	8dd/J)	.	.
=46	=46	=46	=46	=46	=46
2D/ 2A	2.AA\	]	(8.cc/L	2.f#\	]
.	.	.	16a/Jk	.	.
.	.	.	4dd^/	.	.
4D/ 4A	.	.	4cc/)	.	.
=47	=47	=47	=47	=47	=47
2D/ 2B	2.GG\	.	(8b/L	2g\	.
.	.	.	16r	.	.
.	.	.	16dd/Jk	.	.
.	.	.	4.ee/	.	>
4E/ 4B	.	.	.	4ryy	.
.	.	.	8dd/)	.	.
!LO:LB:g=orginal	!	!LO:LB:g=orginal	!	!	!
=48	=48	=48	=48	=48	=48
2D/ 2A	2.GG\	.	(8.cc/L	2.f#\	]
.	.	.	16a/Jk	.	.
.	.	.	4dd^/	.	.
4D/ 4A	.	.	4cc/)	.	.
=49	=49	=49	=49	=49	=49
2D/ 2B	2.GG\	.	(12b/L	2.g\	>
.	.	.	12cc/	.	.
.	.	.	12cc#X/J	.	.
.	.	.	4ee/	.	.
4D/ 4B	.	.	4dd/)	.	.
=50	=50	=50	=50	=50	=50
2D/ 2A	2.GG\	.	(8cc#X/L	2.f#\	]
.	.	.	16r	.	.
.	.	.	16a/Jk	.	.
.	.	.	4.dd^/	.	.
4D/ 4A	.	.	.	.	.
.	.	.	8ccn/)	.	.
=51	=51	=51	=51	=51	=51
2D/ 2B	2.GG\	.	(8b/L	2.g\	.
.	.	.	16r	.	.
.	.	.	16dd/Jk	.	.
.	.	.	4.ee^/	.	.
4D/ 4B	.	.	.	.	.
.	.	.	8dd/)	.	.
=52	=52	=52	=52	=52	=52
2D/ 2A	2.GG\	.	(8cc#X/L	2.f#\	.
.	.	.	16r	.	.
.	.	.	16a/Jk	.	.
.	.	.	4.dd^/	.	.
4D/ 4A	.	.	.	.	.
!	!	!	!LO:N:vis=4	!	!
.	.	.	8ccn/)	.	.
=53	=53	=53	=53	=53	=53
2D/ 2B	2.GG\	.	(12b/L	2.g\	.
.	.	.	12cc/	.	.
.	.	.	12cc#X/J	.	.
.	.	.	4.ee^/	.	.
4D/ 4B	.	.	.	.	.
.	.	.	8dd/)	.	.
!LO:LB:g=orginal	!	!LO:LB:g=orginal	!	!	!
=54	=54	=54	=54	=54	=54
2D/ 2A	2.GG\	.	(8ccn/L	2.f#\	.
.	.	.	16r	.	.
.	.	.	16a/Jk	.	.
.	.	.	4ee/	.	>
4D/ 4A	.	.	4dd/)	.	.
=55	=55	=55	=55	=55	=55
!	!	!	!LO:TX:b:t=una corda	!	!
2D/ 2B	2.GG\	.	(4.gg^/	2.g\	] >
.	.	.	8ff#/L	.	.
.	.	.	16qqee\LL	.	.
.	.	.	(16qqff#\JJ	.	.
4D/ 4B	.	.	8ee/)	.	.
.	.	.	8dd/J)	.	.
=56	=56	=56	=56	=56	=56
!	!	!	!LO:TX:b:t=mo	!	!
2D/ 2B	2.GG\	.	(4.gg/	2.g^\	] >
.	.	.	8ff#/L	.	.
.	.	.	16qqee\LL	.	.
.	.	.	(16qqff#\JJ	.	.
4D/ 4B	.	.	8ee/)	.	.
.	.	.	8dd/J)	.	.
=57	=57	=57	=57	=57	=57
2D/ 2B	2.GG\	.	(4.gg/	2.g^\	] >
.	.	.	8ff#/L	.	.
.	.	.	16qqee\LL	.	.
.	.	.	(16qqff#\JJ	.	.
4D/ 4B	.	.	8ee/)	.	.
.	.	.	8dd/J)	.	.
=58	=58	=58	=58	=58	=58
2D/ 2B	2.GG\	.	(4.gg/	2.g^\	] >
!	!	!	!LO:TX:b:t=ren	!	!
.	.	.	8ff#/L	.	.
.	.	.	16qqee\LL	.	.
.	.	.	(16qqff#\JJ	.	.
4D/ 4B	.	.	8ee/)	.	.
.	.	.	8dd/J)	.	.
=59	=59	=59	=59	=59	=59
2D/ 2B	2.GG\	.	2.gg/	2.g\	]
4D/ 4B	.	.	.	.	.
!LO:PB:g=orginal	!	!LO:PB:g=orginal	!	!	!
*	*	*	*v	*v	*
=60	=60	=60	=60	=60
!	!	!	!LO:TX:b:t=do	!
2D/ 2B	2.GG\	.	2.r	.
4D/ 4B	.	.	.	.
=61	=61	=61	=61	=61
2D/ 2B	2.GG\	.	2.r	.
4D/ 4B	.	.	.	.
=62	=62	=62	=62	=62
2D/ 2B	(2GG\	.	2.r;	.
8D/ 8B	8GG\)	.	.	.
8r;	8ryy	.	.	.
*v	*v	*	*	*
==63	==63	==63	==63
*k[]	*	*k[]	*
!	!	!LO:TX:a:t=Risoluto	!
4CC/ 4C	.	4cc\	ff
4G\ 4c 4e	.	8b'\L	.
.	.	8cc'\	.
4G\ 4c 4e	.	8dd'\	.
.	.	8ee'\J	.
=64	=64	=64	=64
4FFF/ 4FF	.	8.f\L 8.ff	.
.	.	16g\Jk 16gg	.
2A^\ 2c 2f	.	2a^\ 2aa	.
=65	=65	=65	=65
4GGG/ 4GG	.	(4.b\ 4.gg	p >
4BBB/ 4BB	.	.	.
.	.	8ff#X\L	.
4GGG/ 4GG	.	8ffn\	.
.	.	8dd\J)	]]
=66	=66	=66	=66
*	*	*^	*
4CC/ 4C	.	4ee/	4r	.
2GG^\ 2D 2B	.	(8dd^/L	2f\ 2g	.
.	.	8cc/	.	.
.	.	8b/	.	.
.	.	8cc/J)	.	.
*	*	*v	*v	*
=67	=67	=67	=67
.	.	(16qqcc/LL	ff
.	.	16qqdd/JJ)	.
4CC/ 4C	.	4cc\	.
4E\ 4G 4B-X 4c	.	8b'\L	.
.	.	8cc'\	.
4E\ 4G 4B- 4c	.	8dd'\	.
.	.	8ee'\J	.
!LO:LB:g=orginal	!	!LO:LB:g=orginal	!
=68	=68	=68	=68
4FFF/ 4FF	.	8.f\L 8.ff	.
.	.	16g\Jk 16gg	.
2F^\ 2A 2c	.	[2a^\ [2aa	.
=69	=69	=69	=69
*^	*	*^	*
4DD/ 4D	4ryy	.	4a\] 4aa]	4ryy	p
(4F#X/	2D\	.	8gg/L	4a\ 4cc	.
.	.	.	8ff#X/J	.	.
4c/)	.	.	8ee/L	4f#X\ 4a	.
.	.	.	8dd/J	.	.
*v	*v	*	*	*	*
*	*	*v	*v	*
=70	=70	=70	=70
4D\ 4G 4B	.	4.g/ 4.b 4.gg	.
2GGG/ 2GG	.	.	.
.	.	8fn^\L 8ffn	.
.	.	8e^\ 8ee	.
.	.	8d^\J 8dd	.
=71	=71	=71	=71
.	.	16qqcc/LL	ff
.	.	16qqdd/JJ	.
4CC/ 4C	.	4cc\	.
4G\ 4c 4e	.	8b'\L	.
.	.	8cc'\	.
4G\ 4c 4e	.	8dd'\	.
.	.	8ee'\J	.
=72	=72	=72	=72
4FFF/ 4FF	.	8.f\L 8.ff	.
.	.	16g\Jk 16gg	.
2A^\ 2c 2f	.	2a^\ 2aa	.
=73	=73	=73	=73
4GGG/ 4GG	.	(4.b\ 4.gg	p >
4BBB/ 4BB	.	.	.
.	.	8ff#X\L	.
4GGG/ 4GG	.	8ffn\	.
.	.	8dd\J)	]]
=74	=74	=74	=74
*	*	*^	*
4CC/ 4C	.	4ee/	4r	.
2GG^\ 2D 2B	.	(8dd^/L	2f\ 2g	.
.	.	8cc/	.	.
.	.	8b/	.	.
.	.	8cc/J)	.	.
*	*	*v	*v	*
=75	=75	=75	=75
.	.	(16qqcc/LL	ff
.	.	16qqdd/JJ)	.
4CC/ 4C	.	4cc\	.
4E\ 4G 4B-X 4c	.	8b'\L	.
.	.	8cc'\	.
4E\ 4G 4B- 4c	.	8dd'\	.
.	.	8ee'\J	.
!LO:LB:g=orginal	!	!LO:LB:g=orginal	!
=76	=76	=76	=76
4FFF/ 4FF	.	8.f\L 8.ff	.
.	.	16g\Jk 16gg	.
2F^\ 2A 2c	.	[2a^\ [2aa	.
=77	=77	=77	=77
*^	*	*^	*
4DD/ 4D	4ryy	.	4a\] 4aa]	4ryy	p
(4F#X/	2D\	.	8gg/L	4a\ 4cc	.
.	.	.	8ff#X/J	.	.
4c/)	.	.	8ee/L	4f#X\ 4a	.
.	.	.	8dd/J	.	.
*v	*v	*	*	*	*
*	*	*v	*v	*
=78	=78	=78	=78
8.GGG/L 8.GG	.	8.g\L 8.gg	ff
16GGG/Jk 16GG	.	16g\Jk 16gg	.
4GGG/ 4GG	.	4g\ 4gg	.
4GGG^/ 4GG	.	4g^\ 4gg	.
=79||	=79||	=79||	=79||
!	!	!LO:TX:b:t=leggiero	!
4GG/	.	8f#X/L	p
.	.	16r	.
.	.	(16g/Jk	.
4G\ 4B 4fn	.	8a/L)	.
.	.	16r	.
.	.	(16b/Jk	.
4G\ 4B 4f	.	8cc/L)	.
.	.	16r	.
.	.	(16dd/Jk	.
=80	=80	=80	=80
4GG'/	.	8ee/L)	.
.	.	16r	.
.	.	(16g/Jk	.
4r	.	2gg^\)	.
4G'\ 4c 4e	.	.	.
=81	=81	=81	=81
4GG'/	.	8fn/L 8g 8dd	sf
.	.	16r	.
.	.	(16g/Jk	.
4r	.	2gg^\)	.
4G'\ 4B 4d	.	.	.
=82	=82	=82	=82
4GG'/	.	8e/L 8g 8ee	sf
.	.	16r	.
.	.	(16g/Jk	.
4r	.	2gg^\)	.
4G'\ 4c 4e	.	.	.
=83	=83	=83	=83
4GG/	.	8f#X|/L	.
.	.	16r	.
.	.	(16g/Jk	.
4G\ 4B 4fn	.	8a/L)	.
.	.	16r	.
.	.	(16b/Jk	.
4G\ 4B 4f	.	8cc/L)	.
.	.	16r	.
.	.	(16dd/Jk	.
!LO:LB:g=orginal	!	!LO:LB:g=orginal	!
=84	=84	=84	=84
4GG'/	.	8ee/L)	.
.	.	16r	.
.	.	(16g/Jk	.
4r	.	2gg^\)	.
4G'\ 4c 4e	.	.	.
=85	=85	=85	=85
4GGG/ 4GG	.	4.a\ 4.aa	sf
2G^\ 2B 2d	.	.	.
.	.	8g^\L 8gg	.
.	.	8f#X^\ 8ff#X	.
.	.	8fn^\J 8ffn	.
=86	=86	=86	=86
4GGG/ 4GG	.	(8dd#X\L	<
.	.	16ee\Jk)	.
.	.	16r	[
2G^\ 2c 2e	.	8ddn'\L	.
.	.	8cc'\	.
.	.	8b'\	.
.	.	8a'\J	.
=87	=87	=87	=87
!	!	!LO:TX:b:t=leggiero	!
4GG/	.	8f#X/L	p
.	.	16r	.
.	.	(16g/Jk	.
4G\ 4B 4f	.	8a/L)	.
.	.	16r	.
.	.	(16b/Jk	.
4G\ 4B 4f	.	8cc/L)	.
.	.	16r	.
.	.	(16dd/Jk	.
=88	=88	=88	=88
4GG'/	.	8ee'/L)	.
.	.	16r	.
.	.	(16g/Jk	.
4r	.	2gg^\)	.
4G'\ 4c 4e	.	.	.
=89	=89	=89	=89
4GG/	.	8fn/L 8g 8dd	sf
.	.	16r	.
.	.	(16g/Jk	.
4r	.	2gg^\)	.
4G\ 4B 4d	.	.	.
=90	=90	=90	=90
4GG/	.	8e/L 8g 8ee	sf
.	.	16r	.
.	.	(16g/Jk	.
4r	.	2gg^\)	.
4G\ 4c 4e	.	.	.
=91	=91	=91	=91
4GG/	.	8f#X/L	.
.	.	16r	.
.	.	(16g/Jk	.
4G\ 4B 4f	.	8a/L)	.
.	.	16r	.
.	.	(16b/Jk	.
4G\ 4B 4f	.	8cc/L)	.
.	.	16r	.
.	.	(16dd/Jk	.
!LO:LB:g=orginal	!	!LO:LB:g=orginal	!
=92	=92	=92	=92
4GG/	.	8ee/L)	.
.	.	16r	.
.	.	(16g/Jk	.
4r	.	2gg^\)	.
4G\ 4c 4e	.	.	.
=93	=93	=93	=93
4GGG/ 4GG	.	4a\ 4aa	f
4F\ 4G 4B 4d	.	8g|\L 8gg	.
.	.	8f|\ 8ff	.
4F\ 4G 4B 4d	.	8e|\ 8ee	.
.	.	8d|\J 8dd	.
=94	=94	=94	=94
4CC/ 4C	.	4cc\	.
4E\ 4G 4c	.	4cc\ 4ee 4gg 4ccc	???
4CC/ 4C	.	4r	.
=95||	=95||	=95||	=95||
*^	*	*	*
!	!	!	!LO:TX:b:t=dolce	!
!	!	!	!LO:TX:a:t=Minore	!
4EE/ 4E	4ryy	.	(8.ee\L	p
.	.	.	16ee\Jk	.
(4d/	2G#X\	.	4ccc\	.
4e/)	.	.	4bb\)	.
=96	=96	=96	=96	=96
4EE/ 4E	4ryy	.	(8aa\L	.
.	.	.	16bb\L	.
.	.	.	16aa\JJ	.
(4c/	2A\	.	4gg\)	.
4e^/)	.	.	(4ff^\	.
=97	=97	=97	=97	=97
4EE/ 4E	4ryy	.	8ee\L)	.
.	.	.	16r	.
.	.	.	(16ee\Jk	.
(4d/	2B\	.	4ff#X\)	.
4e^/)	.	.	4gg#X^\	.
=98	=98	=98	=98	=98
4EE/ 4E	4ryy	.	8aa\L	.
.	.	.	16r	.
.	.	.	(16aa\Jk	.
(4c/	2A\	.	4bb\)	.
4e^/)	.	.	4ccc^\	.
=99	=99	=99	=99	=99
4EE/ 4E	4ryy	.	(8ee\L	<
.	.	.	16r	.
.	.	.	16ee\Jk	.
(4e/	2G#X\	.	4.ccc\	.
4d^/)	.	.	.	.
.	.	.	8bb\)	[
!	!LO:PB:g=orginal	!	!LO:PB:g=orginal	!
=100	=100	=100	=100	=100
4EE/ 4E	4ryy	.	(8aa\L	.
.	.	.	16bb\L	.
.	.	.	16aa\JJ	.
(4c/	2A\	.	4gg\)	.
4e^/)	.	.	4ff^\	.
=101	=101	=101	=101	=101
4EE/ 4E	4ryy	.	(8.ee|\L	.
.	.	.	16ee\Jk	.
(4d/	2B\	.	4.eee\	.
4e^/)	.	.	.	.
.	.	.	8gg#X\)	.
=102	=102	=102	=102	=102
4EE/ 4E	4ryy	.	(8.gg#X\L	.
.	.	.	16aa\Jk)	.
(4c/	2A\	.	2aa^\	.
4e^/)	.	.	.	.
=103	=103	=103	=103	=103
4EE/ 4E	4ryy	.	(8.ee\L	.
.	.	.	16ee\Jk	<
(4d/	2G#X\	.	4.ccc\	.
4e^/)	.	.	.	.
.	.	.	8bb\)	[
=104	=104	=104	=104	=104
4EE/ 4E	4ryy	.	(8aa\L	.
.	.	.	16bb\L	.
.	.	.	16aa\JJ	.
(4c/	2A\	.	4gg\)	.
4e^/)	.	.	(4ff^\	.
=105	=105	=105	=105	=105
4EE/ 4E	4ryy	.	8ee\L)	.
.	.	.	16r	.
.	.	.	(16ee\Jk	.
(4d/	2B\	.	4ff#X\)	.
4e^/)	.	.	(4gg#X\	.
=106	=106	=106	=106	=106
4EE/ 4E	4ryy	.	8aa\L)	.
.	.	.	16r	.
.	.	.	(16aa\Jk	.
(4c/	2A\	.	4bb\)	.
4e^/)	.	.	(4ccc^\	.
=107	=107	=107	=107	=107
4EE/ 4E	4ryy	.	8ee\L)	.
.	.	.	16r	<
.	.	.	(16ee\Jk	.
(4d/	2G#X\	.	4.ccc\	.
4e^/)	.	.	.	.
.	.	.	8bb\)	[[
!	!LO:LB:g=orginal	!	!LO:LB:g=orginal	!
=108	=108	=108	=108	=108
4EE/ 4E	4ryy	.	(8aa\L	.
.	.	.	16bb\L	.
.	.	.	16aa\JJ	.
(4c/	2A\	.	4ee\)	.
4e^/)	.	.	([4ff^\	.
=109	=109	=109	=109	=109
4DD/ 4D	4r	.	8.ff\L]	<
.	.	.	16ff#X\Jk)	.
(4e/	2d\	.	4bb^\	.
4f#X^/)	.	.	4aa^\	[[
*v	*v	*	*	*
=110	=110	=110	=110
8.GGG'/L 8.GG	.	8.g'\L 8.gg	ff
16GGG'/Jk 16GG	.	16g'\Jk 16gg	.
4GGG'/ 4GG	.	4g'\ 4gg	.
4GGG'/ 4GG	.	4g'\ 4gg	sf
=111	=111	=111	=111
!	!	!LO:TX:b:t=leggiero	!
4GG/	.	8f#X/L	p
.	.	16r	.
.	.	(16g/Jk	.
4G\ 4B 4f	.	8a/L)	.
.	.	16r	.
.	.	(16b/Jk	.
4G\ 4B 4f	.	8cc/L)	.
.	.	16r	.
.	.	(16dd/Jk	.
=112	=112	=112	=112
4GG'/	.	8ee/L)	.
.	.	16r	.
.	.	16g/Jk	.
4r	.	2gg^\	.
4G'\ 4c 4e	.	.	.
=113	=113	=113	=113
4GG'/	.	8fn/L 8g 8dd	sf
.	.	16r	.
.	.	(16g/Jk	.
4r	.	2gg^\)	.
4G'\ 4B 4f	.	.	.
=114	=114	=114	=114
4GG'/	.	8e\L 8g 8ee	sf
.	.	16r	.
.	.	(16g\Jk	.
4r	.	2gg^\)	.
4G'\ 4c 4e	.	.	.
=115	=115	=115	=115
4GG/	.	8f#X|/L	.
.	.	16r	.
.	.	(16g/Jk	.
4G\ 4B 4fn	.	8a/L)	.
.	.	16r	.
.	.	(16b/Jk	.
4G\ 4B 4f	.	8cc/L)	.
.	.	16r	.
.	.	(16dd/Jk	.
!LO:LB:g=orginal	!	!LO:LB:g=orginal	!
=116	=116	=116	=116
4GG'/	.	8ee/L)	.
.	.	16r	.
.	.	(16g/Jk	.
4r	.	2gg^\)	.
4G'\ 4c 4e	.	.	.
=117	=117	=117	=117
4GGG/ 4GG	.	4a\ 4aa	f
4F\ 4G 4B 4d	.	8g^\L 8gg	.
.	.	8f^\ 8ff	.
4F\ 4G 4B 4d	.	8e^\ 8ee	.
.	.	8d^\J 8dd	.
=118	=118	=118	=118
4CC/ 4C	.	4c^/ 4cc	.
4CC/ 4C	.	4cc\ 4ee 4gg 4ccc	sf
4G\ 4B-X 4c 4e	.	4r	.
==119	==119	==119	==119
*k[b-]	*	*k[b-]	*
!	!	!LO:TX:a:t=Pastorale.	!
2FF/ 2AA 2C 2F	.	(8cc^\L	ff >
.	.	8dd\J)	.
.	.	(16qqcc/LL	.
.	.	16qqdd/JJ)	.
.	.	(8cc\L	.
.	.	8bn\	.
4FF/ 4AA 4C 4F	.	8cc\)	.
.	.	8a\J	]]
=120	=120	=120	=120
2FF/ 2AA 2C 2F	.	8f^/L	>
.	.	(8g/J	.
.	.	4a/	.
.	.	(16qqg\LL	.
.	.	16qqa\JJ)	.
4FF/ 4AA 4C 4F	.	8g/L	.
.	.	8f/J)	]]
=121	=121	=121	=121
2FF/ 2AA 2C 2F	.	(8cc^\L	>
.	.	8dd\J)	.
.	.	16qqcc/LL	.
.	.	16qqdd/JJ	.
.	.	(8cc\L	.
.	.	8bn\J	.
4FF/ 4AA 4C 4F	.	8cc\L)	.
.	.	8a'\J	]]
=122	=122	=122	=122
2FF/ 2AA 2C 2F	.	(8f^/L	>
.	.	8g/J	.
.	.	4a/	.
.	.	(16qqg\LL	.
.	.	16qqa\JJ)	.
4FF/ 4AA 4C 4F	.	8g/L	.
.	.	8f/J)	]]
=123	=123	=123	=123
2FF/ 2BB- 2C 2E	.	(8c/L	>
.	.	8e/J)	.
.	.	(8f/L	.
.	.	8d/J	.
4FF/ 4BB- 4C 4E	.	8e/L)	.
.	.	8c'/J	]]
!LO:LB:g=orginal	!	!LO:LB:g=orginal	!
=124	=124	=124	=124
2FF/ 2AA 2C 2F	.	(8f^/L	>
.	.	8g/J	.
.	.	4a/	.
.	.	(16qqg\LL	.
.	.	16qqa\JJ)	.
4FF/ 4AA 4C 4F	.	8g/L	.
.	.	8f/J)	]]
=125	=125	=125	=125
2FF/ 2BB- 2C 2E	.	8.g^/L	>
.	.	(16bn/Jk	.
.	.	8cc/L	.
.	.	8a/	.
4FF/ 4BB- 4C 4E	.	8b-X/	.
.	.	8g/J)	]]
=126	=126	=126	=126
2FF/ 2AA 2C 2F	.	(8a^/L	>
.	.	(16qqg\LL	.
.	.	16qqa\JJ)	.
.	.	8g/J	.
.	.	4f/)	.
4FF/ 4AA 4C 4F	.	(8a^/L	.
.	.	8bn/J)	]]
=127	=127	=127	=127
*8ba	*	*	*
!LO:TX:b:t=8va di Bassa	!	!	!
2FFF/ 2AAA 2CC 2FF	.	(8cc^\L	.
.	.	8dd\J)	.
.	.	16qqcc/LL	.
.	.	16qqdd/JJ	.
.	.	(8cc\L	.
.	.	8bn\	.
4FFF/ 4AAA 4CC 4FF	.	8cc\)	.
.	.	8a|\J	.
=128	=128	=128	=128
2FFF/ 2AAA 2CC 2FF	.	(8f^/L	.
.	.	8g/J	.
.	.	4a/	.
.	.	(16qqg\LL	.
.	.	16qqa\JJ)	.
4FFF/ 4AAA 4CC 4FF	.	8g/L	.
.	.	8f/J)	.
=129	=129	=129	=129
2FFF/ 2AAA 2CC 2FF	.	(8cc^\L	.
.	.	8dd\J)	.
.	.	16qqcc/LL	.
.	.	16qqdd/JJ	.
.	.	(8cc\L	.
.	.	8bn\	.
4FFF/ 4AAA 4CC 4FF	.	8cc\)	.
.	.	8a|\J	.
=130	=130	=130	=130
2FFF/ 2AAA 2CC 2FF	.	(8f^/L	.
.	.	8g/J	.
.	.	4a/	.
.	.	(16qqg\LL	.
.	.	16qqa\JJ)	.
4FFF/ 4AAA 4CC 4FF	.	8g/L	.
.	.	8f/J)	.
!LO:LB:g=orginal	!	!LO:LB:g=orginal	!
=131	=131	=131	=131
2FFF/ 2DD 2FF	.	8c^/L	.
.	.	(8e/J	.
.	.	8f/L	.
.	.	8d/	.
4FFF/ 4CC 4FF	.	8e/)	.
.	.	8c'/J	.
=132	=132	=132	=132
2FFF/ 2AAA 2CC 2FF	.	(8f^/L	.
.	.	8g/J	.
.	.	4a/	.
.	.	(16qqg\LL	.
.	.	16qqa\JJ)	.
4FFF/ 4AAA 4CC 4FF	.	8g/L	.
.	.	8f/J)	.
=133	=133	=133	=133
2FFF/ 2CC 2FF	.	8.B-^/L 8.g	.
.	.	(16bn/Jk	.
.	.	8cc/L	.
.	.	8a/	.
4FFF/ 4CC 4FF	.	8b-X/	.
.	.	8g/J)	.
=134	=134	=134	=134
2FFF/ 2AAA 2CC 2FF	.	(8f^/L	.
.	.	8g/J	.
.	.	4a/	.
.	.	(16qqg\LL	.
.	.	16qqa\JJ)	.
4FFF/ 4AAA 4CC 4FF	.	8g/L	.
.	.	8f/J)	.
=135	=135	=135	=135
2FFF/ 2CC 2FF	.	(8c^/L	.
.	.	(8e/J)	.
.	.	8f/L	.
.	.	8d/	.
4FFF/ 4CC 4FF	.	8e/)	.
.	.	8c'/J	.
=136	=136	=136	=136
2FFF/ 2AAA 2CC 2FF	.	(8f^/L	.
.	.	8g/J	.
.	.	4a/yy	.
.	.	(16qqg\LL	.
.	.	16qqa\JJ)	.
4FFF/ 4AAA 4CC 4FF	.	8g/L	.
.	.	8f/J)	.
*X8ba	*	*	*
=137	=137	=137	=137
!LO:TX:b:t=loco.	!	!	!
2DD/ 2GG 2D	.	8.f^/L 8.g	.
.	.	(16bn/Jk	.
.	.	8cc/L	.
.	.	8a/	.
4DD/ 4GG 4D	.	8bn/	.
.	.	8g/J)	.
=138	=138	=138	=138
2GGG/ 2DD 2GG	.	(8.f/L 8.a	.
.	.	16bn/Jk)	.
.	.	(8cc/L	.
.	.	8a/	.
4GGG/ 4DD 4GG	.	8bn/	.
.	.	8g/J)	.
!LO:PB:g=orginal	!	!LO:PB:g=orginal	!
==139	==139	==139	==139
*k[]	*	*k[]	*
.	.	(16qqcc/LL	f
!	!	!LO:TX:a:t=Risoluto	!
.	.	16qqdd/JJ)	.
4CC/ 4C	.	4cc\	.
4G\ 4c 4e	.	8b\L	.
.	.	8cc\	.
4G\ 4c 4e	.	8dd\	.
.	.	8ee\J	.
=140	=140	=140	=140
4FFF/ 4FF	.	8.f\L 8.ff	.
.	.	16g\Jk 16gg	.
2A^\ 2c 2f	.	2a^\ 2aa	.
=141	=141	=141	=141
4GGG/ 4GG	.	(4.b\ 4.gg	p >
4BBB/ 4BB	.	.	.
.	.	8ff#X\L	.
4GGG/ 4GG	.	8ffn\	.
.	.	8dd\J)	]]
=142	=142	=142	=142
*	*	*^	*
4CC/ 4C	.	4ee\	4ryy	.
2GG^\ 2D 2B	.	(8dd^/L	2f\ 2g	.
.	.	8cc/	.	.
.	.	8b/	.	.
.	.	8cc/J)	.	.
*	*	*v	*v	*
=143	=143	=143	=143
.	.	(16qqcc/LL	ff
.	.	16qqdd/JJ)	.
4CC/ 4C	.	4cc\	.
4E\ 4G 4B-X 4c	.	8b'\L	.
.	.	8cc'\	.
4E\ 4G 4B- 4c	.	8dd'\	.
.	.	8ee'\J	.
=144	=144	=144	=144
4FFF/ 4FF	.	8.f\L 8.ff	.
.	.	16g\Jk 16gg	.
2F^\ 2A 2c	.	[2a^\ [2aa	.
=145	=145	=145	=145
*^	*	*^	*
4DD/ 4D	4ryy	.	4a\] 4aa]	4ryy	p
(4F#X/	2D\	.	8gg/L	4a\ 4cc	.
.	.	.	8ff#X/J	.	.
4c/)	.	.	8ee/L	4f#X\ 4a	.
.	.	.	8dd/J	.	.
*v	*v	*	*	*	*
*	*	*v	*v	*
=146	=146	=146	=146
8.GGG/L 8.GG	.	8.g\L 8.gg	ff
16GGG/Jk 16GG	.	16g\Jk 16gg	.
4GGG/ 4GG	.	4g\ 4gg	.
4GGG/ 4GG	.	4g^\ 4gg	.
!LO:LB:g=orginal	!	!LO:LB:g=orginal	!
=147||	=147||	=147||	=147||
4GG/	.	8f'/L	p
.	.	16r	.
.	.	(16g/Jk	.
4G\ 4B 4f	.	8a/L)	.
.	.	16r	.
.	.	(16b/Jk	.
4G\ 4B 4f	.	8cc/L)	.
.	.	16r	.
.	.	(16dd/Jk	.
=148	=148	=148	=148
4GG/	.	8ee'/L)	.
.	.	16r	.
.	.	(16g/Jk	.
4r	.	2gg^\)	.
4G'\ 4c 4e	.	.	.
=149	=149	=149	=149
4GG/	.	8f/L 8g 8dd	sf
.	.	16r	.
.	.	(16g/Jk	.
4r	.	2gg^\)	.
4G'\ 4B 4e	.	.	.
=150	=150	=150	=150
4GG/	.	8e\L 8g 8ee	sf
.	.	16r	.
.	.	(16g\Jk	.
4r	.	2gg^\)	.
4G'\ 4c 4e	.	.	.
=151	=151	=151	=151
4GG/	.	8f#X/L	.
.	.	16r	.
.	.	(16g/Jk	.
4G\ 4B 4f	.	8a/L)	.
.	.	16r	.
.	.	(16b/Jk	.
4G\ 4B 4f	.	8cc/L)	.
.	.	16r	.
.	.	(16dd/Jk	.
=152	=152	=152	=152
4GG/	.	8ee'/L)	.
.	.	16r	.
.	.	[16g/Jk	.
4r	.	2g^\] 2gg	.
4G'\ 4c 4e	.	.	.
=153	=153	=153	=153
4GGG/ 4GG	.	4.a\ 4.aa	sf
2G\ 2B 2f	.	.	.
.	.	8g^\L 8gg	.
.	.	8f#X^\ 8ff#X	.
.	.	8fny^\J 8ffn	.
!LO:LB:g=orginal	!	!LO:LB:g=orginal	!
=154	=154	=154	=154
4GGG/ 4GG	.	(8dd#X\L	<
.	.	16ee\Jk)	.
.	.	16r	[
2G^\ 2c 2e	.	8ddn'\L	.
.	.	8cc'\	.
.	.	8b'\	.
.	.	8a'\J	.
=155	=155	=155	=155
!	!	!LO:TX:b:t=leggiero	!
4GG/	.	8f#X/L	p
.	.	16r	.
.	.	(16g/Jk	.
4G\ 4B 4fn	.	8a/L)	.
.	.	16r	.
.	.	(16b/Jk	.
4G\ 4B 4f	.	8cc/L)	.
.	.	16r	.
.	.	(16dd/Jk	.
=156	=156	=156	=156
4GG/	.	8ee/L)	.
.	.	16r	.
.	.	(16g/Jk	.
4r	.	2gg^\)	.
4G'\ 4c 4e	.	.	.
=157	=157	=157	=157
4GG/	.	(8fn/L 8g 8dd	sf
.	.	16r	.
.	.	16g/Jk	.
4r	.	2gg^\)	.
4G'\ 4B 4f	.	.	.
=158	=158	=158	=158
4GG'/	.	(8e\L 8g 8ee	sf
.	.	16r	.
.	.	16g\Jk	.
4r	.	2gg^\)	.
4G'\ 4c 4e	.	.	.
=159	=159	=159	=159
4GG/	.	8f#X/L	.
.	.	16r	.
.	.	(16g/Jk	.
4G\ 4B 4fn	.	8a/L)	.
.	.	16r	.
.	.	(16b/Jk	.
4G\ 4B 4f	.	8cc/L)	.
.	.	16r	.
.	.	(16dd/Jk	.
=160	=160	=160	=160
4C/	.	8ee/L)	.
.	.	16r	.
.	.	(16g/Jk	.
4r	.	2gg^\)	.
4G\ 4c 4e	.	.	.
!LO:LB:g=orginal	!	!LO:LB:g=orginal	!
=161	=161	=161	=161
4DD/ 4D	.	8a\L 8cc 8dd 8gg#X	sf <
.	.	16r	.
.	.	[16dd\Jk	.
4r	.	2dd\] 2ddd	[[
4D\ 4F#X 4c	.	.	.
=162	=162	=162	=162
4DD/ 4D	.	8cc#X'\L	f
.	.	16r	.
.	.	16dd'\Jk	.
!LO:TX:a:t=Problem&colon; kasownik na wysokości dźwięku A	!	!	!
4D\ 4Fn 4c	.	8ee'\L	.
.	.	8ff#X'\	.
4D\ 4F 4c	.	8gg'\	.
.	.	8aa'\J	.
=163||	=163||	=163||	=163||
*k[f#]	*	*k[f#]	*
8GGG/ 8GG	.	8b'\ 8bb	ff
!	!	!LO:TX:b:t=con impeto.	!
8r	.	8r	.
4D\ 4G 4B	.	8a'\L 8aa	.
.	.	8g'\ 8gg	.
4E\ 4G 4c	.	8f#'\ 8ff#	.
.	.	8e'\J 8ee	.
=164	=164	=164	=164
4GGG/ 4GG	.	8d/L 8dd	.
.	.	16r	.
.	.	(16b/Jk	.
2E^\ 2G 2B	.	4ee^\	.
.	.	4dd\)	.
=165	=165	=165	=165
*^	*	*^	*
4GG/	4ryy	.	(8e/L 8cc	4ryy	p
.	.	.	16r	.	.
.	.	.	16a/Jk	.	.
2A/	(4Fn\	.	4.dd^/	2d\	.
.	4F#X\)	.	.	.	.
.	.	.	8cc/)	.	.
*v	*v	*	*	*	*
=166	=166	=166	=166	=166
4ryy	.	8.d/L 8.b	4ryy	.
.	.	(16cc/Jk	.	.
*^	*	*	*	*
(4A#X/	2G\	.	4cc#X^/	4e\	.
4B/)	.	.	4dd/)	4d\	.
*v	*v	*	*	*	*
*	*	*v	*v	*
=167	=167	=167	=167
8GGG/ 8GG	.	8b'\ 8bb	.
8r	.	8r	.
4D\ 4G 4B	.	8a'\L 8aa	.
.	.	8g'\ 8gg	.
4E\ 4G 4c	.	8f#'\ 8ff#	.
.	.	8e'\J 8ee	.
!LO:LB:g=orginal	!	!LO:LB:g=orginal	!
=168	=168	=168	=168
4GGG/ 4GG	.	(8d/L 8dd	.
.	.	16r	.
.	.	16b/Jk	.
2D^\ 2G 2B	.	4ee^\	.
.	.	4dd\)	.
=169	=169	=169	=169
*^	*	*^	*
4GG/	4ryy	.	8e/L 8cc	4ryy	p
.	.	.	16r	.	.
.	.	.	(16a/Jk	.	.
2A\	4F#\	.	4.dd^/	2d\	.
.	4F#X\	.	.	.	.
.	.	.	8cc#X/)	.	.
=170	=170	=170	=170	=170	=170
4GG/	4ryy	.	8.d/L 8.b	4ryy	.
.	.	.	(16cc/Jk	.	.
(4A#X/	2G\	.	4cc#X^/	4e\	.
4B/)	.	.	4dd/)	4d\	.
*v	*v	*	*	*	*
*	*	*v	*v	*
==171	==171	==171	==171
*k[f#]	*	*k[f#]	*
*	*	*^	*
*	*	*	*^	*
!	!	!LO:TX:a:t=Con espress.	!	!	!
4FFF#/ 4FF#	.	8cc/L 8ff#	4ryy	8f#\L	pp
.	.	16rc	.	16r	.
.	.	16cc/Jk [16ff#	.	[16f#\Jk	.
2F#\ 2A#X 2e	.	2ff#/]	(4dd\	2f#^\]	.
.	.	.	4ee/)	.	.
=172	=172	=172	=172	=172	=172
4FFF#/ 4FF#	.	8dd/L 8ff#	4ryy	8f#\L	.
.	.	16rc	.	16r	.
.	.	16dd/Jk [16ff#	.	[16f#\Jk	.
2F#\ 2B 2d	.	2ff#/]	4cc#X\	2f#^\]	.
.	.	.	4b/	.	.
=173	=173	=173	=173	=173	=173
*^	*	*	*	*	*
4FFF#/ 4FF#	4ryy	.	8a#X/L 8ff#	4ryy	8f#\L	.
.	.	.	16rc	.	16r	.
.	.	.	(16a#/Jk [16ff#	.	[16f#\Jk	.
2e/	4c#X\	.	2ff#/]	4b\	2f#^\]	.
.	4F#\	.	.	4cc#X/)	.	.
=174	=174	=174	=174	=174	=174	=174
4FFF#/ 4FF#	4ryy	.	8b/L 8ff#	4ryy	8f#\L	.
.	.	.	16rc	.	16r	.
.	.	.	16b/Jk [16ff#	.	[16f#\Jk	.
2d/	(4B\	.	2ff#/]	(4cc#X/	2f#^\]	.
.	4F#\)	.	.	4dd/)	.	.
=175	=175	=175	=175	=175	=175	=175
4FFF#/ 4FF#	4ryy	.	8cc#X/L 8ff#	4ryy	8f#\L	.
.	.	.	16rc	.	16r	.
.	.	.	(16cc#/Jk [16ff#	.	[16f#\Jk	.
2e/	2F#\ 2A#X	.	2ff#/]	4dd\	2f#^\]	.
.	.	.	.	4ee/)	.	.
*v	*v	*	*	*	*	*
!LO:PB:g=orginal	!	!LO:PB:g=orginal	!	!	!
=176	=176	=176	=176	=176	=176
4FFF#/ 4FF#	.	8dd/L 8ff#	4ryy	8f#\L	.
.	.	16rc	.	16r	.
.	.	(16dd/Jk [16ff#	.	[16f#\Jk	.
2E\ 2B 2d	.	2ff#/]	4cc#X\	2f#^\]	.
.	.	.	4b/)	.	.
=177	=177	=177	=177	=177	=177
*^	*	*	*	*	*
4FFF#/ 4FF#	4ryy	.	8a#X/L 8ff#	4ryy	8f#\L	.
.	.	.	16rc	.	16r	.
.	.	.	(16a#/Jk [16ff#	.	[16f#\Jk	.
2e/	(4c#X\	.	2ff#/]	4b\	2f#^\]	.
.	4F#\)	.	.	4cc#X/)	.	.
*v	*v	*	*	*	*	*
*	*	*	*v	*v	*
=178	=178	=178	=178	=178
4BBB/ 4BB	.	8f#\L	8dd/ 8ff#	f
.	.	8cc#X\J 8ccc#X	8ryy	.
2D\ 2Fn 2A 2cn	.	8ee|\L 8eee	2ryy	.
.	.	16r	.	.
.	.	16dd^\K 16ddd	.	.
.	.	8cc#X^\ 8ccc#X	.	.
.	.	8ccn^\J 8cccn	.	.
*	*	*v	*v	*
=179||	=179||	=179||	=179||
!	!	!LO:TX:a:t=Con animato	!
8GGG/ 8GG	.	8b\ 8bb	???
!	!	!LO:TX:b:t=con impeto	!
8r	.	8r	.
4D\ 4G 4B	.	8a|\L 8aa	.
.	.	8g|\ 8gg	.
4E\ 4G 4c	.	8f#|\ 8ff#	.
.	.	8e|\J 8ee	.
=180	=180	=180	=180
4GGG/ 4GG	.	(8d/L 8dd	.
.	.	16r	.
.	.	16b/Jk	.
2D^\ 2G 2B	.	4ee^\	.
.	.	4dd\)	.
=181	=181	=181	=181
*^	*	*^	*
4GG/	4ryy	.	(8e/L 8cc	4ryy	p
.	.	.	16r	.	.
.	.	.	16a/Jk	.	.
2A/	(4Fn\	.	4dd^/	2d\	.
.	4F#X\)	.	4cc/)	.	.
=182	=182	=182	=182	=182	=182
4GG/	4ryy	.	8.d/L 8.b	4ryy	.
.	.	.	(16cc/Jk	.	.
(4A#X/	2G^\	.	4cc#X^/	(4e\	.
4B/)	.	.	4dd/)	4d\)	.
*v	*v	*	*	*	*
*	*	*v	*v	*
!LO:LB:g=orginal	!	!LO:LB:g=orginal	!
=183	=183	=183	=183
8GGG/ 8GG	.	8b|\ 8bb	ff
8r	.	8r	.
4D\ 4G 4B	.	8a|\L 8aa	.
.	.	8g|\ 8gg	.
4E\ 4G 4c	.	8f#|\ 8ff#	.
.	.	8e|\J 8ee	.
=184	=184	=184	=184
4GGG/ 4GG	.	(8d/L 8dd	.
.	.	16r	.
.	.	16b/Jk	.
2D\ 2G 2B	.	4ee^\	.
.	.	4dd\)	.
=185	=185	=185	=185
*^	*	*^	*
4GG/	4ryy	.	8e/L 8cc	4ryy	p
.	.	.	16r	.	.
.	.	.	(16a/Jk	.	.
2A/	(4Fn\	>	4.dd^/	2d\	.
.	4F#X\)	.	.	.	.
.	.	.	8cc#X/)	.	.
=186	=186	=186	=186	=186	=186
4GG/	4ryy	]	8.d/L 8.b	4ryy	.
.	.	.	(16cc/Jk	.	.
(4A#X/	2G^\	.	4cc#X^/	4e\	>
4B/)	.	.	(4dd/)	4d\	.
*v	*v	*	*	*	*
*	*	*v	*v	*
==187	==187	==187	==187
*k[]	*	*k[]	*
!	!	!LO:TX:b:t=una corda	!
!	!	!LO:TX:a:t=molto espress	!
4EE-X\ 4E-X	.	(8.dd\L)	] pp
.	.	16dd\Jk	.
2G\ 2d-X 2e-X	.	4ee-X\	.
.	.	4dd-X\)	.
=188	=188	=188	=188
4EE-X/ 4E-X	.	(8.cc\L	.
.	.	16ee-X\Jk	.
2A-X\ 2c 2e-X	.	4bb-X\	.
.	.	4aa-X\)	.
=189	=189	=189	=189
*^	*	*	*
4EE-X/ 4E-X	4ryy	.	(8.gg\L	.
.	.	.	16dd-X\Jk	.
(4d-X/	2B-X\	.	4ff\	>
4e-X/)	.	.	4ee-X\)	]]
!LO:LB:g=orginal	!	!LO:LB:g=orginal	!	!
=190	=190	=190	=190	=190
4EE-X/ 4E-X	4ryy	.	(8.cc|\L	.
.	.	.	16dd-X\Jk	.
(4c/	2A-X\	.	4ddn\	>
4e/)	.	.	4ee-X\)	]]
*v	*v	*	*	*
=191	=191	=191	=191
4EE-X/ 4E-X	.	8.dd-X|\L	.
.	.	(16dd-\Jk	.
.	.	8qff/	>
2G\ 2d-X 2e-X	.	4ee-X\	.
.	.	4dd-\)	]]
=192	=192	=192	=192
4EE-X/ 4E-X	.	8.cc|\L	.
.	.	(16ee-X\Jk	.
2A-X\ 2c 2e-X	.	4bb-X\	>
.	.	4aa\)	]]
=193	=193	=193	=193
*^	*	*	*
4EE-X/ 4E-X	4ryy	.	(8.gg\L	.
.	.	.	16gg\Jk	>
(4d-X/	2B-X\	.	4ddd-X\	.
4e-X/)	.	.	4gg\)	]]
*v	*v	*	*	*
=194	=194	=194	=194
4AAA-X/ 4AA-X	.	2.aa-X\	.
2A-X\ 2c 2e-X	.	.	.
=195	=195	=195	=195
!	!	!LO:TX:a:t=Con anima	!
4EEn/ 4En	.	4.g#X\ 4.gg#X	ff
4En\ 4G#X 4Bn	.	.	.
.	.	8f#X^\L 8ff#X	.
4E\ 4G# 4B	.	8en^\ 8een	.
.	.	8dn^\J 8ddn	.
=196	=196	=196	=196
4AAA/ 4AA	.	(8.c#X/L 8.cc#X	.
.	.	16e/Jk 16ee	.
2E\ 2An 2c#X	.	4bn\ 4bbn	.
.	.	4an\) 4aan	.
!LO:LB:g=orginal	!	!LO:LB:g=orginal	!
=197	=197	=197	=197
4EE/ 4E	.	(8.g#X\L 8.gg#X	.
.	.	16dd\Jk	.
2E\ 2G#X 2B	.	4f#X\) 4ff#X	.
.	.	4e^\ 4ee	.
=198	=198	=198	=198
4AAA/ 4AA	.	(8.c#X\L 8.cc#X	.
.	.	16d\Jk 16dd	.
4E\ 4A 4c#X	.	4d#X\) 4dd#X	.
4r	.	(4e;\ 4ee	.
=199||	=199||	=199||	=199||
!	!	!LO:TX:a:t=piu lento	!
4EE-X/ 4E-X	.	8.ee-X\L)	pp
.	.	(16ee-\Jk	.
2G\ 2d-X 2e-X	.	4ddn\	>
!	!	!LO:TX:b:t=languroso	!
.	.	4dd-X\)	]]
=200	=200	=200	=200
4EE-X/ 4E-X	.	(8.ccn\L	.
.	.	16ee-X\Jk	.
2A-X\ 2c 2e-X	.	4bb-X\	>
.	.	4aa-X\)	]]
=201	=201	=201	=201
*^	*	*	*
4EE-X/ 4E-X	4ryy	.	(8.ggn\L	.
.	.	.	16gg\Jk	.
(4d-X/	2B-X\	.	4ddd-X\	>
4e/)	.	.	4gg\)	]]
*v	*v	*	*	*
=202	=202	=202	=202
4AAA-X/ 4AA-X	.	2.aa-X\	.
2A-X\ 2c 2e-X	.	.	.
=203	=203	=203	=203
!	!	!LO:TX:a:t=Con anima	!
4EEn/ 4En	.	4.g#X\ 4.gg#X	ff
4En\ 4G#X 4Bn	.	.	.
.	.	8f#X^\L 8ff#X	.
4E\ 4G# 4B	.	8en^\ 8een	.
.	.	8dn^\J 8ddn	.
=204	=204	=204	=204
4AAA/ 4AA	.	(8.c#X/L 8.cc#X	.
.	.	16e/Jk 16ee	.
2E\ 2A 2c#X	.	4bn\) 4bbn	.
.	.	4an^\ 4aan	.
!LO:LB:g=orginal	!	!LO:LB:g=orginal	!
=205	=205	=205	=205
4EE/ 4E	.	8.g#X\L 8.gg#X	.
.	.	(16dd\Jk	.
2E\ 2G#X 2B	.	4f#X\) 4ff#X	.
.	.	4e^\ 4ee	.
=206	=206	=206	=206
4AAA/ 4AA	.	8.c#X/L 8.cc#X	.
.	.	(16d/Jk 16dd	.
4E\ 4A 4c#X	.	4d#X/) 4dd#X	.
4r;	.	(4e;/ 4ee	.
=207	=207	=207	=207
!	!	!LO:TX:a:t=piu lento	!
4EE-X/ 4E-X	.	8.ee-X\L)	pp
.	.	(16ee-\Jk	.
2Gn\ 2d-X	.	4ddn\	.
!	!	!LO:TX:b:t=languroso	!
.	.	4dd-X^\)	.
=208	=208	=208	=208
4EE-X/ 4E-X	.	(8.ccn|\L	.
.	.	16ee-X\Jk	.
2A-X\ 2cn 2e-X	.	4bb-X\	.
.	.	4aa-X^\)	.
=209	=209	=209	=209
*^	*	*	*
4EE-X/ 4E-X	4ryy	.	(8.ggn|\L	.
.	.	.	16gg\Jk	.
(4d-X/	2B-X\	.	4.ddd-X\	>
4e-X/)	.	.	.	.
.	.	.	8gg\)	]]
*v	*v	*	*	*
=210	=210	=210	=210
4AAA-X/ 4AA-X	.	4aa-X;\	.
!	!	!LO:TX:b:t=lunga pausa	!
8A\ 8c 8e-X	.	4r;	.
8r;	.	.	.
!	!	!	!LO:DY:a
4DD|/ 4D	.	4an|\ 4cc 4ff#X 4aan	???
=211||	=211||	=211||	=211||
*k[f#]	*	*k[f#]	*
8GGG/ 8GG	.	8b\ 8bb	???
8r	.	8r	.
!	!	!LO:TX:b:t=Con impeto	!
4D\ 4G 4B	.	8a|\L 8aa	.
.	.	8g|\ 8gg	.
4E\ 4G 4c	.	8f#|\ 8ff#	.
.	.	8e|\J 8ee	.
!LO:LB:g=orginal	!	!LO:LB:g=orginal	!
=212	=212	=212	=212
4GGG/ 4GG	.	(8d/L 8dd	.
.	.	16r	.
.	.	16b/Jk	.
2D^\ 2G 2B	.	4ee^\	.
.	.	4dd\)	.
=213	=213	=213	=213
*^	*	*^	*
4GG/	4ryy	.	8e/L 8cc	4ryy	p
.	.	.	16r	.	.
.	.	.	(16a/Jk	.	.
2A/	(4Fn\	>	4.dd^/	2d\	.
.	4F#X\)	.	.	.	.
.	.	.	8cc/)	.	.
=214	=214	=214	=214	=214	=214
4GG/	4ryy	]	8.d/L 8.b	4ryy	.
.	.	.	(16cc/Jk	.	.
(4A#X/	2G^\	.	4cc#X^/	4e\	>
4B/)	.	.	4dd/)	4d\	.
*v	*v	*	*	*	*
*	*	*v	*v	*
=215	=215	=215	=215
8GGG/ 8GG	.	8b'\ 8bb	] ???
8r	.	8r	.
4D\ 4G 4B	.	8a'\L 8aa	.
.	.	8g'\ 8gg	.
4E\ 4G 4c	.	8f#'\ 8ff#	.
.	.	8e'\J 8ee	.
=216	=216	=216	=216
4GGG/ 4GG	.	(8d/L 8dd	.
.	.	16r	.
.	.	16b/Jk	.
2D^\ 2G 2B	.	4ee^\	.
.	.	4dd\)	.
=217	=217	=217	=217
*^	*	*^	*
4GG/	4ryy	.	8e/L 8cc	4ryy	.
.	.	.	16r	.	.
.	.	.	(16a/Jk	.	.
2A/	(4Fn\	>	4.dd^/	2d\	.
.	4F#X\)	.	.	.	.
.	.	.	8cc/)	.	.
=218	=218	=218	=218	=218	=218
4GG/	4ryy	]	8.d/L 8.b	4ryy	.
.	.	.	(16cc/Jk	.	.
(4A#X/	2G^\	.	4cc#X^/	4e\	.
4B/)	.	.	4dd/)	4d\	.
*v	*v	*	*	*	*
*	*	*v	*v	*
=219||	=219||	=219||	=219||
4AAA/ 4AA	.	8cc#X|\L	.
.	.	16r	.
.	.	(16ee\Jk	.
!	!	!LO:TX:a:t=con eleganza	!
2G\ 2A 2c#X 2e	.	4bb\	.
.	.	4aa\)	.
!LO:LB:g=orginal	!	!LO:LB:g=orginal	!
=220	=220	=220	=220
4AAA/ 4AA	.	8ff#\L	.
.	.	16r	.
.	.	(16aa\Jk	.
2F#\ 2A 2d	.	4eee^\	.
.	.	4ddd\)	.
=221	=221	=221	=221
*^	*	*	*
4AAA/ 4AA	4ryy	.	8cc#X|\L	.
.	.	.	16r	.
.	.	.	(16ee\Jk	.
(4e/	2G\ 2c#X	.	4b^\ 4bb	.
4A/)	.	.	4a\) 4aa	.
=222	=222	=222	=222	=222
4AAA/ 4AA	4ryy	.	8dd|\L	.
.	.	.	16r	.
.	.	.	(16ff#\Jk	.
.	.	.	16qqff#/LL	.
.	.	.	16qqaa/JJ	.
(4d/	2F#\	.	4gg\	.
4A/)	.	.	4ff#\)	.
*v	*v	*	*	*
=223	=223	=223	=223
4AAA/ 4AA	.	(8cc#X|\L	.
.	.	16r	.
.	.	16ee\Jk	.
2G\ 2A 2c#X 2e	.	4bb^\	.
.	.	4aa\)	.
=224	=224	=224	=224
4AAA/ 4AA	.	(8ff#|\L	.
.	.	16r	.
.	.	16aa\Jk	.
2F#\ 2A 2d	.	4eee^\	.
.	.	4ddd\)	.
=225	=225	=225	=225
*^	*	*	*
4AAA/ 4AA	4ryy	.	(8cc#X|\L	<
.	.	.	16r	.
.	.	.	16ee\Jk	.
4e/	2G\ 2c#X	.	4b\ 4bb	.
4A/	.	.	4a\) 4aa	[[
*v	*v	*	*	*
=226	=226	=226	=226
!LO:TX:b:t=viguroso.	!	!	!
2.DD^:/ 2.AA: 2.F#:	.	(4.dd^\	ff
.	.	8cc#X\L	.
.	.	16qqb/LL	.
.	.	16qqcc#/JJ	.
.	.	8b\	.
.	.	8a\J)	.
!LO:LB:g=orginal	!	!LO:LB:g=orginal	!
=227	=227	=227	=227
2.DD^:/ 2.AA: 2.F#:	.	(4.dd^\	.
.	.	8cc#X\L	.
.	.	16qqb/LL	.
.	.	16qqcc#/JJ	.
.	.	8b\	.
.	.	8a\J)	.
=228	=228	=228	=228
2.DD^:/ 2.AA: 2.F#:	.	(4.dd^\	p >
.	.	8cc#X\L	.
.	.	16qqb/LL	.
.	.	16qqcc#/JJ	.
.	.	8b\	.
.	.	8a\J)	.
=229	=229	=229	=229
2.DD^:/ 2.AA: 2.F#:	.	(4.dd^\	.
.	.	8cc#X\L	.
.	.	16qqb/LL	.
!	!	!LO:TX:b:t=dolce	!
.	.	16qqcc#/JJ	.
.	.	8b\	.
.	.	8a\J)	]]
=230	=230	=230	=230
*^	*	*^	*
2D/ 2B	2.GG\	.	(4.gg/	2.g^\	pp >
.	.	.	8ff#/L	.	.
.	.	.	16qqee\LL	.	.
.	.	.	(16qqff#\JJ	.	.
4D/ 4B	.	.	8ee/)	.	.
.	.	.	8dd/J)	.	.
=231	=231	=231	=231	=231	=231
2D/ 2B	2.GG\	.	(4.gg/	2.g^\	] >
.	.	.	8ff#/L	.	.
.	.	.	16qqee\LL	.	.
.	.	.	(16qqff#\JJ	.	.
4D/ 4B	.	.	8ee/)	.	.
.	.	.	8dd/J)	.	.
=232	=232	=232	=232	=232	=232
2D/ 2A	2.GG\	.	(8cc/L	2.f#^\	] >
.	.	.	16r	.	.
.	.	.	16a/Jk	.	.
.	.	.	4.dd^/	.	.
4D/ 4A	.	.	.	.	.
.	.	.	8cc/)	.	.
=233	=233	=233	=233	=233	=233
2D/ 2G	2.GG\	.	(12b/L	2.g^\	] >
.	.	.	12cc/	.	.
.	.	.	12cc#X/J	.	.
.	.	.	4ee^/	.	.
4D/ 4G	.	.	4dd/)	.	.
!LO:LB:g=orginal	!	!LO:LB:g=orginal	!	!	!
=234	=234	=234	=234	=234	=234
2D/ 2B	2.GG\	.	(4.gg/	2.g^\	] >
.	.	.	8ff#/L	.	.
.	.	.	16qqee\LL	.	.
.	.	.	(16qqff#\JJ	.	.
4D/ 4B	.	.	8ee/)	.	.
.	.	.	8dd/J)	.	.
=235	=235	=235	=235	=235	=235
2D/ 2B	2.GG\	.	(4.gg/	2.g^\	] >
.	.	.	8ff#/L	.	.
.	.	.	16qqee\LL	.	.
.	.	.	16qqff#\JJ	.	.
4D/ 4B	.	.	8ee/	.	.
.	.	.	8dd/J)	.	.
=236	=236	=236	=236	=236	=236
2D/ 2A	2.GG\	.	(8.cc/L	2.f#\	] >
.	.	.	16a/Jk	.	.
.	.	.	4dd^/	.	.
4D/ 4A	.	.	4cc/)	.	.
=237	=237	=237	=237	=237	=237
2D/ 2G	2.GG\	.	2b/	2.g\	] >
4D/ 4G	.	.	4dd/	.	.
=238	=238	=238	=238	=238	=238
2D/ 2B	2.GG\	.	(4.gg/	2.g^\	] >
.	.	.	8ff#/L	.	.
.	.	.	16qqee\LL	.	.
.	.	.	(16qqff#\JJ	.	.
4D/ 4B	.	.	8ee/)	.	.
.	.	.	8dd/J)	.	.
=239	=239	=239	=239	=239	=239
2D/ 2B	2.GG\	.	(4.gg/	2.g^\	] >
.	.	.	8ff#/L	.	.
.	.	.	16qqee\LL	.	.
.	.	.	(16qqff#\JJ	.	.
4D/ 4B	.	.	8ee/)	.	.
.	.	.	8dd/J)	.	.
=240	=240	=240	=240	=240	=240
2D/ 2A	2.GG\	.	8.cc/L	2.f#^\	] >
.	.	.	16a/Jk	.	.
.	.	.	4.dd^/	.	.
4D/ 4A	.	.	.	.	.
.	.	.	8cc/	.	.
=241	=241	=241	=241	=241	=241
2D/ 2G	2.GG\	.	(12b/L	2.g\	] >
.	.	.	12cc/	.	.
.	.	.	12cc#X/J	.	.
.	.	.	4ee^/	.	.
4D/ 4G	.	.	4dd/)	.	.
!LO:LB:g=original	!	!LO:LB:g=original	!	!	!
=242	=242	=242	=242	=242	=242
2D/ 2B	2.GG\	.	(4.gg/	2.g^\	] >
.	.	.	8ff#/L	.	.
.	.	.	16qqee\LL	.	.
.	.	.	(16qqff#\JJ	.	.
4D/ 4B	.	.	8ee/)	.	.
.	.	.	8dd/J)	.	.
=243	=243	=243	=243	=243	=243
!	!	!	!LO:N:vis=8.	!	!
2D/ 2B	2.GG\	.	(4.gg/	2.g^\	] >
.	.	.	8ff#/L	.	.
.	.	.	16qqee\LL	.	.
.	.	.	(16qqff#\JJ	.	.
4D/ 4B	.	.	8ee/)	.	.
!	!	!	!LO:N:vis=4	!	!
.	.	.	8dd/J)	.	.
=244	=244	=244	=244	=244	=244
2D/ 2A	2.GG\	.	(8cc/L	2.f#\	]
.	.	.	16r	.	.
.	.	.	16a/Jk	.	.
.	.	.	4.dd^/	.	.
4D/ 4A	.	.	.	.	.
.	.	.	8cc/)	.	.
=245	=245	=245	=245	=245	=245
2D/ 2B	2.GG\	.	(8b/L	2.g\	.
.	.	.	16r	.	.
.	.	.	16dd/Jk	.	.
.	.	.	4.ee^/	.	.
4D/ 4B	.	.	.	.	.
.	.	.	8dd/)	.	.
=246	=246	=246	=246	=246	=246
2D/ 2A	2.GG\	.	(8cc/L	2.f#\	>
.	.	.	16r	.	.
.	.	.	16a/Jk	.	.
.	.	.	4dd^/	.	.
4D/ 4A	.	.	4cc/)	.	.
=247	=247	=247	=247	=247	=247
2D/ 2B	2.GG\	.	(12b/L	2.g^\	] >
.	.	.	12cc/	.	.
.	.	.	12cc#X/J	.	.
.	.	.	4ee^/	.	.
4D/ 4B	.	.	4dd/)	.	.
=248	=248	=248	=248	=248	=248
2D/ 2A	2.GG\	.	(8cc#X/L	2.f#\	] >
.	.	.	16r	.	.
.	.	.	16a/Jk	.	.
.	.	.	4.dd^/	.	.
4D/ 4A	.	.	.	.	.
.	.	.	8ccn/)	.	.
!LO:PB:g=original	!	!LO:PB:g=original	!	!	!
=249	=249	=249	=249	=249	=249
2D/ 2B	2.GG\	.	(8b/L	2.g\	]
.	.	.	16r	.	.
.	.	.	16dd/Jk	.	.
.	.	.	4.ee^/	.	.
4D/ 4B	.	.	.	.	.
.	.	.	8dd/)	.	.
=250	=250	=250	=250	=250	=250
2D/ 2A	2.GG\	.	(8cc#X/L	2.f#\	>
.	.	.	16r	.	.
.	.	.	16a/Jk	.	.
.	.	.	4dd^/	.	.
4D/ 4A	.	.	4ccn/)	.	.
=251	=251	=251	=251	=251	=251
2D/ 2B	2.GG\	.	(12b/L	2.g\	] >
.	.	.	12cc/	.	.
.	.	.	12cc#X/J	.	.
.	.	.	4.ee^/	.	.
4D/ 4B	.	.	.	.	.
.	.	.	8dd/)	.	.
=252	=252	=252	=252	=252	=252
2D/ 2A	2.GG\	.	(8cc#X/L	2.f#\	] >
.	.	.	16r	.	.
.	.	.	16a/Jk	.	.
.	.	.	4.ee^/	.	.
4D/ 4A	.	.	.	.	.
.	.	.	8dd/)	.	.
=253	=253	=253	=253	=253	=253
!	!	!	!LO:TX:a:t=una corda	!	!
2D/ 2B	2.GG\	.	(4.gg/	2.g^\	] >
.	.	.	8ff#/L	.	.
.	.	.	16qqee\LL	.	.
.	.	.	(16qqff#\JJ	.	.
4D/ 4B	.	.	8ee/)	.	.
.	.	.	8dd/J)	.	.
=254	=254	=254	=254	=254	=254
2D/ 2B	2.GG\	.	(4.gg/	2.g^\	] >
.	.	.	8ff#/L	.	.
.	.	.	16qqee\LL	.	.
.	.	.	(16qqff#\JJ	.	.
4D/ 4B	.	.	8ee/)	.	.
.	.	.	8dd/J)	.	.
=255	=255	=255	=255	=255	=255
2D/ 2B	2.GG\	.	(4.gg/	2.g^\	] >
.	.	.	8ff#/L	.	.
.	.	.	16qqee\LL	.	.
.	.	.	(16qqff#\JJ	.	.
4D/ 4B	.	.	8ee/)	.	.
.	.	.	8dd/J)	.	.
!LO:LB:g=original	!	!LO:LB:g=original	!	!	!
=256	=256	=256	=256	=256	=256
2D/ 2B	2.GG\	.	(4.gg/	2.g^\	]
.	.	.	8ff#/L	.	.
.	.	.	16qqee\LL	.	.
.	.	.	(16qqff#\JJ	.	.
4D/ 4B	.	.	8ee/)	.	.
.	.	.	8dd/J)	.	.
=257	=257	=257	=257	=257	=257
8qC#X/	.	.	.	.	.
2GG^/ 2D	2.GG\	.	(4.bb/	2.b^\	.
.	.	.	8aa/L	.	.
.	.	.	16qqgg\LL	.	.
.	.	.	(16qqaa\JJ	.	.
4GG/ 4D	.	.	8gg/)	.	.
.	.	.	8ff#/J)	.	.
=258	=258	=258	=258	=258	=258
8qC#X/	.	.	.	.	.
2GG^/ 2D	2.GG\	.	(4.bb/	2.b^\	.
.	.	.	8aa/L	.	.
.	.	.	16qqgg\LL	.	.
.	.	.	(16qqaa\JJ	.	.
4GG/ 4D	.	.	8gg/)	.	.
.	.	.	8ff#/J)	.	.
*v	*v	*	*	*	*
=259	=259	=259	=259	=259
8qC#X/	.	.	.	.
2GG^/ 2D	.	(4.bb/	2.b^\	.
.	.	8aa/L	.	.
.	.	16qqgg\LL	.	.
.	.	(16qqaa\JJ	.	.
4GG/ 4D	.	8gg/)	.	.
.	.	8ff#/J)	.	.
=260	=260	=260	=260	=260
8qC#X/	.	.	.	.
2GG^/ 2D	.	(4.bb/	2.b^\	.
.	.	8aa/L	.	.
.	.	16qqgg\LL	.	.
.	.	(16qqaa\JJ	.	.
4GG/ 4D	.	8gg/)	.	.
.	.	8ff#/J)	.	.
=261	=261	=261	=261	=261
!	!	!LO:TX:b:t=morendo	!	!
8qC#X/	.	8qaa#X/	8qa#X\	.
2GG^/ 2D	.	2.bb/	2.b\	.
4GG/ 4D	.	.	.	.
=262	=262	=262	=262	=262
8qC#X/	.	8qa#X/	8qf#\	.
2GG^/ 2D	.	2.b/	(4.g^\	.
.	.	.	8f#\L	.
.	.	.	(16qqf#/LL	.
.	.	.	16qqe/JJ)	.
4GG/ 4D	.	.	8e\	.
.	.	.	8d\J)	.
!LO:LB:g=original	!	!LO:LB:g=original	!	!
=263	=263	=263	=263	=263
.	.	8qaa#X/	8qa#X\	.
2GG^/ 2D	.	2.bb/	2.b\	.
4GG/ 4D	.	.	.	.
=264	=264	=264	=264	=264
8qC#X/	.	8qa#X/	8qf#\	.
2GG^/ 2D	.	2.b/	(4.g^\	.
.	.	.	8f#\L	.
.	.	.	(16qqf#/LL	.
.	.	.	16qqe/JJ)	.
4GG/ 4D	.	.	8e\	.
.	.	.	8d\J)	.
=265	=265	=265	=265	=265
!LO:N:vis=2	!	!	!	!
8qC#X/	.	8qaa#X/	8qa#X\	.
2.GG/ 2.D	.	2.bb/	2.b\	.
=266	=266	=266	=266	=266
!LO:N:vis=2	!	!	!	!
8qC#X/	.	8qaa#X/	8qa#X\	.
2.GG^/ 2.D	.	2.bb/	2.b\	.
=267	=267	=267	=267	=267
!LO:N:vis=2	!	!	!	!
8qC#X/	.	8qaa#X/	8qa#X\	.
2.GG^/ 2.D	.	2.bb/	2.b\	.
*	*	*v	*v	*
=268	=268	=268	=268
!LO:N:vis=2	!	!	!
8qC#X/	.	.	.
2.GG^/ 2.D	.	2.r	.
=269	=269	=269	=269
!LO:N:vis=2	!	!	!
8qC#X/	.	.	.
2.GG^/ 2.D	.	2.r	.
=270	=270	=270	=270
!	!	!LO:TX:b:t=lunga pausa	!
4r;	.	4r;	.
4r;	.	4r;	.
4GG/ 4G	.	4g\ 4b 4dd 4gg	ff
=271	=271	=271	=271
4GGG/ 4GG	.	4gg^\ 4bb 4ddd 4ggg	ff
4r	.	4r	.
!LO:TX:b:t=Fine.	!	!	!
4r;	.	4r;	.
==	==	==	==
*-	*-	*-	*-
!!!RDF**kern: | = vertical stroke
!!!system-decoration: [(s1,s2)]
!!!ENC: Berenika Jozajtis
!!!END: 2022-02-18
!!!ENC: Julita Ruszuk
!!!END: 2022-02-18
